lib/preview/nrk-logo-preview-nrk-nyheter.svg

<svg width="103" height="24" viewBox="0 0 103 24" fill="none" xmlns="http://www.w3.org/2000/svg">
<path d="M0 18.0028V6.0039H3.93719V18.0028H0ZM9.29381 7.91359L11.5581 18.0028H7.24917L4.54549 6.0039H6.96218C7.51635 5.99671 8.05406 6.19206 8.4745 6.5532C8.89562 6.89919 9.18495 7.37951 9.29381 7.91359ZM12.1495 18.0028V6.0039H16.0867V18.0028H12.1495ZM19.0605 10.5669C18.6362 10.571 18.2188 10.46 17.8525 10.2458C17.4912 10.0369 17.1911 9.73677 16.9823 9.37541C16.7678 9.00914 16.6568 8.59157 16.661 8.16713C16.6561 7.74527 16.7672 7.33019 16.9823 6.96723C17.1933 6.6098 17.4931 6.3129 17.8525 6.10533C18.2189 5.89131 18.6362 5.78032 19.0605 5.78419C19.4822 5.77965 19.8971 5.89074 20.2602 6.10533C20.616 6.31472 20.9127 6.61137 21.122 6.96723C21.3368 7.33029 21.4479 7.7453 21.4433 8.16713C21.4473 8.59154 21.3363 9.00903 21.122 9.37541C20.9149 9.73518 20.6179 10.0351 20.2602 10.2458C19.8971 10.4608 19.4819 10.5719 19.0599 10.5669H19.0605ZM22.0516 18.0028V6.0039H25.9892V18.0028H22.0516ZM30.9737 12.561C30.9848 12.5727 31.0693 12.7107 31.2272 12.9751C31.3851 13.2395 31.5906 13.5775 31.8439 13.9891C32.0974 14.4005 32.3649 14.8371 32.6463 15.2988C32.9278 15.7605 33.1926 16.1972 33.4408 16.6086C33.6881 17.02 33.9697 17.4847 34.2857 18.0028H29.9598C29.6893 17.5634 29.4441 17.1663 29.2245 16.8114C29.0048 16.4565 28.7713 16.0734 28.5238 15.6622C28.2758 15.2513 28.0306 14.8513 27.7882 14.4623C27.5458 14.0732 27.3375 13.7324 27.1633 13.4399C26.9883 13.1471 26.8671 12.9499 26.7997 12.8483C26.6325 12.5963 26.5336 12.3051 26.5127 12.0034C26.5294 11.7137 26.6226 11.4338 26.7828 11.1919C26.8504 11.0793 26.9743 10.8792 27.1545 10.5919C27.3348 10.3046 27.546 9.96386 27.7882 9.56953C28.0304 9.1752 28.2756 8.77241 28.5238 8.36118C28.772 7.94995 29.0056 7.56404 29.2245 7.20351C29.4445 6.84336 29.6897 6.44339 29.9598 6.00362H34.2857L30.9396 11.4623C30.8361 11.6244 30.7777 11.8112 30.7706 12.0034C30.7818 12.2051 30.8522 12.3991 30.9731 12.561H30.9737Z" fill="white"/>
<path d="M47.5956 15.1304L40.376 5.9918H39V18.0037H40.5969V8.85999L47.8338 18.0037H49.2097V5.9918H47.5959L47.5956 15.1304Z" fill="white"/>
<path d="M57.6524 9.46005L57.6392 15.7959C57.5154 15.8678 57.392 15.9369 57.2711 15.9989C57.0647 16.1047 56.8519 16.1979 56.6341 16.2778C56.4277 16.3545 56.2144 16.4112 55.997 16.4469C55.7752 16.4818 55.5509 16.4987 55.3263 16.4977C54.9787 16.5116 54.6334 16.4357 54.324 16.2775C54.0558 16.1227 53.849 15.8809 53.738 15.5926C53.5971 15.2227 53.5305 14.8288 53.5423 14.4334V9.20572L51.8096 9.45946V14.7715C51.7889 15.4128 51.8988 16.0517 52.1326 16.6497C52.3203 17.1159 52.6659 17.5019 53.1095 17.7409C53.6134 17.9873 54.1704 18.1063 54.7315 18.0874C55.2 18.0906 55.6655 18.0135 56.1077 17.8593C56.5439 17.7039 56.9557 17.4874 57.3305 17.2162C57.4339 17.142 57.5361 17.0633 57.638 16.9816L57.6363 17.7147C57.6363 18.5606 57.4381 19.2035 57.0417 19.6434C56.6454 20.0832 55.9716 20.3032 55.0203 20.3032C54.7596 20.3032 54.4935 20.2918 54.2218 20.2691C53.9506 20.2467 53.6811 20.2072 53.4149 20.1509C53.1488 20.0945 52.8797 20.024 52.6077 19.9394C52.3357 19.8548 52.064 19.7562 51.7924 19.6434L51.9795 21.1491C52.206 21.2389 52.4437 21.3207 52.6927 21.3944C52.9416 21.4681 53.1964 21.5301 53.4571 21.5805C53.7176 21.6312 53.9894 21.6707 54.2725 21.6989C54.5556 21.7271 54.8445 21.7411 55.1392 21.7409C55.7537 21.7513 56.3654 21.6569 56.948 21.4621C57.4411 21.2957 57.8949 21.0307 58.2815 20.6835C58.6426 20.3527 58.9244 19.9452 59.1057 19.4911C59.2978 19.0007 59.393 18.4779 59.386 17.9515L59.3687 9.20458L57.6524 9.46005Z" fill="white"/>
<path d="M68.5578 9.54436C68.0587 9.29186 67.5035 9.1697 66.944 9.18935C66.4454 9.18926 65.9497 9.26624 65.4748 9.41749C64.9922 9.57029 64.5323 9.78659 64.1071 10.0607C63.9791 10.1427 63.8554 10.2298 63.7334 10.3226V5.23053L62.0006 5.48431V18.0037H63.7334V11.5027C63.8676 11.4293 64.0052 11.3594 64.1493 11.2957C64.3897 11.19 64.6366 11.0996 64.8885 11.025C65.1311 10.9532 65.3778 10.8967 65.6275 10.8558C65.8605 10.8172 66.0962 10.7974 66.3324 10.7966C66.604 10.7909 66.8745 10.8338 67.1309 10.9235C67.347 11.0013 67.5399 11.1322 67.6917 11.3041C67.8475 11.4907 67.9578 11.7108 68.0139 11.947C68.0868 12.2459 68.1212 12.5528 68.1164 12.8603V18.0034H69.8489V12.505C69.8715 11.8636 69.7615 11.2244 69.5258 10.6271C69.334 10.1684 68.9931 9.78712 68.5578 9.54436Z" fill="white"/>
<path d="M79.0053 10.4667C78.6791 10.0458 78.2488 9.7163 77.7565 9.51054C77.2096 9.28843 76.623 9.17916 76.0325 9.18937C75.4374 9.17926 74.847 9.29459 74.2998 9.52775C73.8021 9.74471 73.3584 10.0681 73.0003 10.4749C72.6313 10.9025 72.3538 11.4005 72.1846 11.9386C71.991 12.5543 71.8965 13.1967 71.9046 13.8419C71.8805 14.6571 72.0521 15.4662 72.4054 16.2019C72.7283 16.8395 73.2498 17.3559 73.8918 17.6739C74.6452 18.0273 75.4719 18.1983 76.3043 18.1729C76.7047 18.1762 77.1049 18.1508 77.5016 18.0968C77.8333 18.0491 78.1602 17.9727 78.4784 17.8684C78.7941 17.7628 79.1009 17.6327 79.396 17.4793L79.5147 16.1766C79.2995 16.2555 79.0815 16.3345 78.8606 16.4134C78.6398 16.4924 78.4105 16.5629 78.1727 16.6249C77.9328 16.6875 77.6886 16.7327 77.4422 16.76C77.194 16.7883 76.9445 16.8026 76.6948 16.8025C76.2488 16.8097 75.8037 16.7614 75.3698 16.6587C75.0197 16.5753 74.6958 16.4067 74.4272 16.1681C74.1557 15.9107 73.9566 15.587 73.8496 15.2292C73.7387 14.8667 73.6763 14.4913 73.6642 14.1126H79.8034C79.887 13.4128 79.8554 12.7041 79.71 12.0144C79.5905 11.4537 79.3501 10.9256 79.0053 10.4667ZM74.7245 10.8724C75.1231 10.6316 75.5833 10.5112 76.0492 10.5259C76.5158 10.5027 76.9766 10.6368 77.3572 10.9066C77.6956 11.1755 77.9371 11.5466 78.0453 11.964C78.13 12.2726 78.1717 12.5914 78.1693 12.9114H73.7016C73.7331 12.574 73.8055 12.2417 73.9173 11.9217C74.0624 11.4926 74.3463 11.1236 74.7245 10.8724Z" fill="white"/>
<path d="M86.4033 16.6415L86.1145 16.6926C86.0218 16.709 85.9282 16.7203 85.8342 16.7264C85.7433 16.7323 85.6584 16.7346 85.5794 16.7346C85.319 16.7418 85.0605 16.6897 84.8235 16.5823C84.6195 16.4862 84.4505 16.3297 84.3393 16.1342C84.2203 15.9136 84.1617 15.6656 84.1694 15.4152V10.7289H86.5646L86.7515 9.37544H84.1694V6.7021L82.4368 7.31144V9.37544H81.1287L80.9416 10.7289H82.4368V15.7705C82.429 16.1067 82.4808 16.4416 82.5897 16.7599C82.677 17.0119 82.8126 17.2447 82.9888 17.4454C83.1504 17.6241 83.347 17.768 83.5664 17.8684C83.7911 17.9709 84.0278 18.0447 84.2711 18.088C84.5121 18.1324 84.7565 18.155 85.0015 18.1557C85.1827 18.1557 85.3612 18.1501 85.5369 18.139C85.7127 18.1279 85.874 18.111 86.0211 18.088C86.168 18.0655 86.307 18.0401 86.4372 18.0122C86.5675 17.9842 86.6777 17.9586 86.7685 17.9357L86.8704 16.5318C86.8043 16.5573 86.7361 16.5771 86.6666 16.591C86.587 16.6077 86.4993 16.6249 86.4033 16.6415Z" fill="white"/>
<path d="M94.9735 10.4667C94.6473 10.0458 94.2171 9.71635 93.7248 9.51054C93.1778 9.28842 92.5913 9.17915 92.0007 9.18937C91.4056 9.17934 90.8151 9.29466 90.2679 9.52775C89.7703 9.74478 89.3266 10.0681 88.9684 10.4749C88.5995 10.9024 88.3221 11.4004 88.153 11.9383C87.9594 12.554 87.8649 13.1964 87.873 13.8416C87.849 14.6568 88.0207 15.4659 88.3739 16.2017C88.6967 16.8393 89.2182 17.3556 89.8602 17.6735C90.6137 18.0269 91.4403 18.198 92.2727 18.1726C92.6732 18.1759 93.0733 18.1505 93.4701 18.0965C93.8018 18.0488 94.1287 17.9724 94.4471 17.8681C94.7627 17.7626 95.0694 17.6325 95.3644 17.479L95.4834 16.1763C95.268 16.2553 95.0499 16.3342 94.8291 16.4131C94.6082 16.4921 94.3789 16.5626 94.1413 16.6246C93.9014 16.6872 93.6573 16.7324 93.4109 16.7597C93.1628 16.7881 92.9132 16.8023 92.6634 16.8023C92.2174 16.8094 91.7722 16.7611 91.3381 16.6585C90.9881 16.5749 90.6643 16.4064 90.3956 16.1678C90.1242 15.9103 89.9252 15.5866 89.8181 15.2289C89.7071 14.8665 89.6448 14.491 89.6329 14.1123H95.7718C95.8555 13.4125 95.824 12.7038 95.6784 12.0142C95.5588 11.4536 95.3183 10.9255 94.9735 10.4667ZM90.6926 10.8724C91.0912 10.6315 91.5516 10.5111 92.0176 10.5259C92.4842 10.5027 92.945 10.6368 93.3257 10.9066C93.6639 11.1755 93.9053 11.5466 94.0134 11.964C94.0984 12.2726 94.1401 12.5914 94.1374 12.9114H89.67C89.7014 12.574 89.7738 12.2417 89.8854 11.9217C90.0306 11.4927 90.3145 11.1237 90.6926 10.8724Z" fill="white"/>
<path d="M101.445 9.31599C101.127 9.40078 100.824 9.53191 100.545 9.70511C100.255 9.88522 99.9871 10.0981 99.7463 10.3395C99.7064 10.3793 99.6673 10.4241 99.6274 10.4661V9.20574L97.8947 9.45949V18.0032H99.6274V11.6118C99.7563 11.5223 99.8896 11.4393 100.027 11.3631C100.197 11.2699 100.373 11.1879 100.554 11.1177C100.729 11.0497 100.907 10.9905 101.089 10.9401C101.275 10.8883 101.465 10.8515 101.657 10.8302C101.863 10.8074 102.071 10.8017 102.278 10.813L102.482 9.22292C102.133 9.19801 101.783 9.22945 101.445 9.31599Z" fill="white"/>
</svg>

<svg xmlns="http://www.w3.org/2000/svg" viewBox="0 0 103 24"><path fill="#fff" d="M0 18.003v-12h3.937v12H0Zm9.294-10.09 2.264 10.09H7.25l-2.704-12h2.417a2.276 2.276 0 0 1 1.513.55c.42.346.71.827.819 1.36Zm2.855 10.09v-12h3.938v12h-3.938Zm6.912-7.436a2.382 2.382 0 0 1-2.4-2.4 2.301 2.301 0 0 1 .321-1.2 2.41 2.41 0 0 1 3.278-.862c.356.21.653.506.862.862.215.363.326.778.321 1.2a2.35 2.35 0 0 1-.321 1.208 2.4 2.4 0 0 1-.862.87 2.302 2.302 0 0 1-1.2.322Zm2.99 7.436v-12h3.938v12h-3.937Zm8.923-5.442c.01.012.095.15.253.414s.364.603.617 1.014a315.936 315.936 0 0 1 1.597 2.62c.247.411.529.876.845 1.394H29.96c-.27-.44-.516-.837-.736-1.192-.22-.355-.453-.738-.7-1.149-.248-.41-.493-.81-.736-1.2-.242-.389-.45-.73-.625-1.022-.175-.293-.296-.49-.363-.592a1.747 1.747 0 0 1-.287-.845c.016-.29.11-.57.27-.811.067-.113.191-.313.371-.6s.392-.628.634-1.022c.242-.395.488-.798.736-1.209l.7-1.157.736-1.2h4.326l-3.346 5.458a1.08 1.08 0 0 0-.17.541c.012.202.082.396.203.558ZM47.596 15.13l-7.22-9.138H39v12.012h1.597V8.86l7.237 9.144h1.376V5.992h-1.614v9.138ZM57.652 9.46l-.013 6.336a8.104 8.104 0 0 1-.368.203c-.206.106-.42.199-.637.279a3.42 3.42 0 0 1-.637.169 4.195 4.195 0 0 1-.67.05 2.024 2.024 0 0 1-1.003-.22 1.352 1.352 0 0 1-.586-.684 3.005 3.005 0 0 1-.196-1.16V9.206l-1.732.253v5.313c-.021.64.089 1.28.323 1.878.187.466.533.852.976 1.09a3.43 3.43 0 0 0 1.622.347c.469.004.934-.073 1.377-.228a4.879 4.879 0 0 0 1.223-.643c.103-.074.205-.153.307-.234l-.002.733c0 .846-.198 1.488-.594 1.928-.397.44-1.07.66-2.022.66a9.59 9.59 0 0 1-.798-.034 6.476 6.476 0 0 1-.807-.118 9.005 9.005 0 0 1-1.623-.508l.188 1.506a8.413 8.413 0 0 0 2.293.55c.283.028.571.042.866.042a5.415 5.415 0 0 0 1.809-.279 3.827 3.827 0 0 0 1.334-.779c.36-.33.642-.738.824-1.192.192-.49.287-1.013.28-1.54l-.017-8.746-1.717.255ZM68.558 9.544a3.317 3.317 0 0 0-1.614-.355c-.499 0-.994.077-1.47.228a5.699 5.699 0 0 0-1.74.906V5.23L62 5.484v12.52h1.732v-6.501a5.496 5.496 0 0 1 1.155-.478c.243-.072.49-.128.74-.17.233-.038.468-.058.704-.058.272-.006.543.037.799.127.216.077.409.208.56.38.156.187.267.407.323.643.073.299.107.606.102.913v5.143h1.733v-5.498a4.668 4.668 0 0 0-.323-1.878 2.221 2.221 0 0 0-.968-1.083ZM79.005 10.467a3.085 3.085 0 0 0-1.248-.956 4.381 4.381 0 0 0-1.725-.322 4.237 4.237 0 0 0-1.732.339c-.498.217-.942.54-1.3.947a4.142 4.142 0 0 0-.815 1.464 6.09 6.09 0 0 0-.28 1.903 5.103 5.103 0 0 0 .5 2.36 3.315 3.315 0 0 0 1.487 1.472 5.3 5.3 0 0 0 2.412.499c.4.003.8-.022 1.198-.076a5.776 5.776 0 0 0 1.894-.618l.119-1.302-.654.236c-.221.08-.45.15-.688.212-.24.063-.484.108-.73.135a6.574 6.574 0 0 1-.748.042 5.376 5.376 0 0 1-1.325-.143 2.18 2.18 0 0 1-.943-.49 2.138 2.138 0 0 1-.577-.94 4.284 4.284 0 0 1-.186-1.116h6.14c.083-.7.051-1.409-.094-2.099a3.946 3.946 0 0 0-.705-1.547Zm-4.28.405c.398-.24.858-.36 1.324-.346.467-.023.928.11 1.308.38.339.27.58.64.688 1.058.085.309.127.627.124.947h-4.467c.031-.337.103-.67.215-.99.145-.428.43-.797.808-1.049ZM86.403 16.642l-.288.05a2.561 2.561 0 0 1-.28.034c-.092.006-.177.009-.256.009a1.716 1.716 0 0 1-.755-.153 1.092 1.092 0 0 1-.485-.448 1.422 1.422 0 0 1-.17-.719V10.73h2.396l.186-1.354H84.17V6.702l-1.732.61v2.063h-1.308l-.187 1.354h1.495v5.042c-.008.336.044.67.153.989.087.252.223.485.399.685.161.18.358.323.577.423.225.103.462.177.705.22.241.044.486.067.73.068.182 0 .36-.006.536-.017.176-.011.337-.028.484-.051a7.176 7.176 0 0 0 .748-.152l.101-1.404a1.244 1.244 0 0 1-.203.059c-.08.017-.168.034-.264.05ZM94.974 10.467a3.085 3.085 0 0 0-1.25-.956 4.381 4.381 0 0 0-1.723-.322 4.24 4.24 0 0 0-1.733.339c-.498.217-.941.54-1.3.947a4.14 4.14 0 0 0-.815 1.463 6.09 6.09 0 0 0-.28 1.904 5.106 5.106 0 0 0 .5 2.36 3.313 3.313 0 0 0 1.487 1.471c.754.354 1.58.525 2.413.5.4.003.8-.022 1.197-.076a5.782 5.782 0 0 0 1.894-.618l.12-1.303c-.216.08-.434.158-.655.237-.22.08-.45.15-.688.212a5.13 5.13 0 0 1-.73.135 6.573 6.573 0 0 1-.748.042 5.39 5.39 0 0 1-1.325-.143 2.183 2.183 0 0 1-.942-.491 2.14 2.14 0 0 1-.578-.94 4.27 4.27 0 0 1-.185-1.116h6.139c.084-.7.052-1.408-.094-2.098a3.946 3.946 0 0 0-.704-1.547Zm-4.281.405c.398-.24.859-.36 1.325-.346.466-.023.927.11 1.308.38.338.27.58.64.687 1.058.085.309.127.627.124.947H89.67c.031-.337.104-.67.215-.99a2.05 2.05 0 0 1 .808-1.049ZM101.445 9.316a3.335 3.335 0 0 0-.9.39c-.29.18-.558.392-.799.633-.04.04-.079.085-.119.127v-1.26l-1.732.253v8.544h1.732v-6.391a4.424 4.424 0 0 1 .927-.494c.175-.068.353-.127.535-.178a3.595 3.595 0 0 1 1.189-.127l.204-1.59a3.248 3.248 0 0 0-1.037.093Z"/></svg>
